X:1
T:C Major Stephen Jenks, 1818
T:John Cennick, 1740 Thomas Ken, 1695    88. 88. (L. M.)
T:Strong Hope
T:Transcribed from The Harmony of Zion, 1818.
%%score [ 1 2 3 4 ]
L:1/8
Q:1/4=90
M:2/4
K:C
V:1 treble nm="Voice"
V:2 treble nm="Voice"
V:3 treble-8 nm="Tenor"
V:4 bass nm="Bass"
V:1
"^2. The way the ho –ly     prophets      went,    The road that leads from ba–nish–ment;    The  King's high  –  way   of       ho  –  li  –""^1. Jesus,  my    all,   to     heav'n is      gone,     He, whom I   fix    my    hopes up  –  on;     His   tracks I             see    and    I'll    pur –" c2 c>c | %1
 B3 c | d2 c2 | B3 z | B2 Bc | B3 c | GF ED | E2 z e |: ed cB | A2 z A | fe dc | %11
"^1. –sue  The nar – row    way   'til           him I  view.  His""^2. –ness, I'll go,     for      all      his   paths are peace. The" B2 z c | %12
 cB AG | ed cd | c2 B2 |1 c3 e :|2 c4- || c2 z2 || %18
"^Praise God from whom all blessings flow," c2 A>A | d2 z e | fe dc | B2 z c | B2 c2 | B2 c2 | %24
 B2 A2 | ^G3 z | c2 c>c | c3 z | c2 d/c/ B/A/ | G3 z | c2 AA | ^G3 A | A2 G2 | E4- | E4 |] %35
V:2
"^3.  This is  the   way    I      long    have   sought, And mourned because I found  it        not;      My   grief,   my        bur –  den   long    has""^4. The more I   strove a – gainst   its       power,   I sinned and  stumbled  but     the     more,   'Til    late      I          heard  my     Sa  –  vior" G2 G>G | %1
 G3 G | GF EF | G3 z | G2 GG | G3 E | E2 G2 | G2 z2 |: z4 | z2 z F | F2 F2 | %11
"^3. been, Be – cause  I          could  not      cease from sin.  My""^4. say,   Come  hi  –  ther,     soul,   \"I             am the way.\" 'Til" E2 z E | %12
 G2 G2 | G2 G2 | G2 D2 |1 E3 z :|2 E4- || E2 z2 || z4 | z4 | z4 | %21
 z2 z"^Praise him all creatures" E | E2 E2 | E2 E2 | %24
"^here be – low;   Praise him above,      ye   heavenly    host,     Praise Father,    Son  and   Ho–ly   Ghost," E2 E2 | %25
 E3 z | G2 A>A | G3 z | G2 AA | G3 z | E2 FF | E3 E | F2 D2 | E4- | E4 |] %35
V:3
"^5. Lo!  glad  I     come, and thou,  blest   Lamb,    Shall take me  to    thee   as      I          am;     No –   thing   but         sin      I       thee   can""^6. Then will I     tell     to    sin  – ners    round,    What a dear   Sa – vior    I       have found;    I'll     point    to           thy     re  –  dee –ming" e2 e>e | %1
 d3 c | gf ed | e3 z | d2 de | d3 c | ed cB | c2 z c |: cB AG | ^F2 z d | dc BA | %11
"^5. give,  No – thing  but      love    shall          I  re–ceive.  No–""^6. blood, And say,   \"Be   –  hold    the         way to God,\"  I'll" ^G2 z e | %12
 ed cB | cB AG/F/ | E2 D2 |1 C3 c :|2 C4- || C2 z2 || %18
"^Praise God from whom all blessings flow," c2 c>c | B2 z c | dc BA | ^G2 z A | ^G2 A2 | ^G2 A2 | %24
 ^G2 c2 | B3 z | e2 f>f | e3 z | e2 f/e/ d/c/ | B3 z | g2 f/e/ d/c/ | B3 c | c2 B2 | c4- | c4 |] %35
V:4
 C,2 C,>C, | G,3 G, | G,2 A,2 | E,3 z | G,2 G,C, | G,3 A, | G,2 G,,2 | C,2 z2 |: z4 | z2 z D, | %10
 D,2 D,2 | E,2 z C, | C,2 C,D, | E,2 F,E,/F,/ | G,2 G,,2 |1 C,3 z :|2 C,4- || C,2 z2 || z4 | z4 | %20
 z4 | z2 z A, | E,2 A,,2 | E,2 A,2 | E,2 A,,2 | E,3 z | C,2 F,>F, | C,3 z | C,2 F,F, | G,3 z | %30
 C,2 D,D, | E,3 C, | F,2 G,2 | C,4- | C,4 |] %35

